img/workers.svg

<svg width="48" height="38" viewBox="0 0 48 38" fill="none" xmlns="http://www.w3.org/2000/svg">
<path d="M45.1875 29.0856V24.625C45.1875 19.9949 43.6945 15.594 40.87 11.8982C38.3629 8.61756 34.8964 6.10159 31.026 4.73163C30.9183 2.50066 29.0697 0.71875 26.8125 0.71875H21.1875C18.9303 0.71875 17.0817 2.50066 16.974 4.73163C13.1036 6.10159 9.63713 8.61756 7.12997 11.8982C4.30547 15.594 2.8125 19.9949 2.8125 24.625V29.0856C1.17572 29.6661 0 31.2292 0 33.0625C0 35.3887 1.89253 37.2812 4.21875 37.2812H43.7812C46.1075 37.2812 48 35.3887 48 33.0625C48 31.2292 46.8243 29.6661 45.1875 29.0856ZM5.625 24.625C5.625 19.554 7.79119 14.8068 11.3438 11.4198V16.1875C11.3438 16.9641 11.9734 17.5938 12.75 17.5938C13.5266 17.5938 14.1562 16.9641 14.1562 16.1875V9.21409C15.0424 8.64841 15.9822 8.15491 16.9688 7.74419V19C16.9688 19.7766 17.5984 20.4062 18.375 20.4062C19.1516 20.4062 19.7812 19.7766 19.7812 19V5.77487C19.7813 5.77103 19.7812 5.76719 19.7812 5.76334V4.9375C19.7812 4.16209 20.4121 3.53125 21.1875 3.53125H26.8125C27.5879 3.53125 28.2188 4.16209 28.2188 4.9375V5.76297C28.2188 5.767 28.2187 5.77094 28.2188 5.77497V19C28.2188 19.7766 28.8484 20.4062 29.625 20.4062C30.4016 20.4062 31.0312 19.7766 31.0312 19V7.74419C32.0178 8.155 32.9576 8.6485 33.8438 9.21409V16.1875C33.8438 16.9641 34.4734 17.5938 35.25 17.5938C36.0266 17.5938 36.6562 16.9641 36.6562 16.1875V11.4198C40.2088 14.8068 42.375 19.554 42.375 24.625V28.8438H5.625V24.625ZM43.7812 34.4688H4.21875C3.44334 34.4688 2.8125 33.8379 2.8125 33.0625C2.8125 32.2871 3.44334 31.6562 4.21875 31.6562H43.7812C44.5567 31.6562 45.1875 32.2871 45.1875 33.0625C45.1875 33.8379 44.5567 34.4688 43.7812 34.4688Z" fill="#FF5A30"/>
</svg>

<svg width="48" height="38" fill="none" xmlns="http://www.w3.org/2000/svg"><path d="M45.188 29.086v-4.461c0-4.63-1.494-9.031-4.318-12.727a21.497 21.497 0 00-9.844-7.166A4.224 4.224 0 0026.813.719h-5.625a4.224 4.224 0 00-4.214 4.013 21.497 21.497 0 00-9.844 7.166c-2.825 3.696-4.317 8.097-4.317 12.727v4.46A4.225 4.225 0 000 33.063a4.224 4.224 0 004.219 4.22H43.78A4.223 4.223 0 0048 33.061a4.225 4.225 0 00-2.813-3.976zM5.624 24.625c0-5.071 2.166-9.818 5.719-13.205v4.768a1.406 1.406 0 002.812 0V9.213a18.295 18.295 0 012.813-1.47V19a1.406 1.406 0 002.812 0V5.775v-.837c0-.776.631-1.407 1.407-1.407h5.625c.775 0 1.406.631 1.406 1.406V19a1.406 1.406 0 002.812 0V7.744c.987.411 1.927.905 2.813 1.47v6.973a1.406 1.406 0 002.812 0V11.42c3.553 3.387 5.719 8.134 5.719 13.205v4.219H5.625v-4.219zm38.156 9.844H4.22a1.408 1.408 0 010-2.813H43.78a1.408 1.408 0 010 2.813z" fill="#FF5A30"/></svg>
